X: 24
T:Missa Gaudeamus / Kyrie
N: Derived from Jos0402a-Missa_Gaudeamus-Kyrie.krn
C: Josquin des Prez
%%abc-version 2.0
%%abcx-abcm2ps-target-version 5.9.1 (29 Sep 2008)
%%abc-creator hum2abc beta
%%abcx-conversion-date 2019/02/12 16:15:39
%%abc-edited-by Jesse Rodin
%%abc-edited-by Jesse Rodin; Victoria Chang 2011/04/11
%%abcx-initial-encoding-date 2011/04/11/
%%humdrum-veritas 1306138475
%%humdrum-veritas-data 980360146
%%linebreak <none>
%%barnumbers 0
L: 1/4
M: 3/1
Q: 1/2=120
%%staves [1 2 3 4]
V: 1 clef=treble
V: 2 clef=treble-8
V: 3 clef=treble-8
V: 4 clef=bass
K: C
[V:1] z12 | 
[V:2] G4A2A3Bcd | 
[V:3] z12 | 
[V:4] z12 | 
[V:1] G4A2A3Bcd | 
[V:2] e4f8 | 
[V:3] z12 | 
[V:4] z12 | 
[V:1] e4f8 | 
[V:2] e2a4d4a2- | 
[V:3] z12 | 
[V:4] z12 | 
[V:1] e4d2e2de2d/c/ | 
[V:2] age2f2g3cc2 | 
[V:3] z12 | 
[V:4] z12 | 
[V:1] B2d2c3BAGA2 | 
[V:2] g3fede2f2e2- | 
[V:3] G4A2A3Bcd | 
[V:4] z12 | 
[V:1] G4z2F2A3B | 
[V:2] edcBA4d4 | 
[V:3] e4f8 | 
[V:4] C,4D,2D,3E,F,G, | 
[V:1] c4F2G6 | 
[V:2] c4d2G2d4 | 
[V:3] e4z4z4 | 
[V:4] A,4_B,8 | 
[V:1] A2c4B2c2Bc- | 
[V:2] c3BA2G2A2GA- | 
[V:3] e8e4- | 
[V:4] A,4z4z4 | 
[V:1] cde2f2d2f4 | 
[V:2] ABc2F2f3ga2- | 
[V:3] e4d8 | 
[V:4] C,4D,2D,3E,F,G, | 
[V:1] e4d8 | 
[V:2] agef2gfg2fg2 | 
[V:3] c4d4d4 | 
[V:4] A,4_B,8 | 
[V:1] c3BAGc2B2e2- | 
[V:2] z2c3BA2G2c2- | 
[V:3] e8g4- | 
[V:4] A,4z4z4 | 
[V:1] edcBA2f3ed2 | 
[V:2] cde2(3:2:6f2d3cd2A3B | 
[V:3] g4f8 | 
[V:4] C,4D,2D,3E,F,G, | 
[V:1] cBAG(3:2:6F2_B3AA2F2G2 | 
[V:2] c4d2G2d4 | 
[V:3] e4d8 | 
[V:4] A,4_B,8 | 
[V:1] A12- | 
[V:2] c8F4 | 
[V:3] e4f2e2f4 | 
[V:4] A,12- | 
[V:1] A12 ||  
[V:2] c12 ||  
[V:3] e12 ||  
[V:4] A,12 ||  
[V:1] [M:2/1]z8 | 
[V:2] [M:2/1]z8 | 
[V:3] [M:2/1]e8- | 
[V:4] [M:2/1]C6A,2 | 
[V:1] z8 | 
[V:2] c6A2 | 
[V:3] e8- | 
[V:4] A,4z2C2- | 
[V:1] z8 | 
[V:2] A4z2c2- | 
[V:3] e8- | 
[V:4] C2B,A,G,2A,2- | 
[V:1] z8 | 
[V:2] c2BAG2A2 | 
[V:3] e8 | 
[V:4] A,4B,2C2 | 
[V:1] z8 | 
[V:2] _B6G2 | 
[V:3] d8- | 
[V:4] D4G,4 | 
[V:1] z8 | 
[V:2] G4z2_B2- | 
[V:3] d8- | 
[V:4] _B,6G,2 | 
[V:1] z8 | 
[V:2] B2AGF2G2- | 
[V:3] d8- | 
[V:4] G,4z2_B,2- | 
[V:1] z8 | 
[V:2] G4A2=B2 | 
[V:3] d8 | 
[V:4] B,2A,G,F,2G,2 | 
[V:1] c6A2 | 
[V:2] c4z2c2- | 
[V:3] c8- | 
[V:4] A,8 | 
[V:1] A4z2c2- | 
[V:2] c2BAA4 | 
[V:3] c8- | 
[V:4] F,8 | 
[V:1] c2BAG2A2 | 
[V:2] z2c4BA | 
[V:3] c8 | 
[V:4] C,8 | 
[V:1] _B6G2 | 
[V:2] G4_B4- | 
[V:3] d8- | 
[V:4] z4G,4- | 
[V:1] G4z2_B2- | 
[V:2] B4A2G2 | 
[V:3] d8 | 
[V:4] G,2F,E,F,2G,2- | 
[V:1] B2AGF2G2- | 
[V:2] _B4A2_B2- | 
[V:3] d8 | 
[V:4] G,4D,2G,2- | 
[V:1] G4A2=B2 | 
[V:2] Bcdef2d2 | 
[V:3] d8 | 
[V:4] G,2F,E,D,4 | 
[V:1] c4A2c2- | 
[V:2] e2A3GA=B | 
[V:3] c8- | 
[V:4] A,4z2A,2- | 
[V:1] cBA2G2A2- | 
[V:2] c4z4 | 
[V:3] c8 | 
[V:4] A,G,A,B,C2F,2- | 
[V:1] AGF2E2D2 | 
[V:2] z8 | 
[V:3] A3Bc2d2- | 
[V:4] F,E,F,G,A,2D,2- | 
[V:1] A4z4 | 
[V:2] z8 | 
[V:3] d4c2B2- | 
[V:4] D,C,D,E,F,2G,2- | 
[V:1] z8 | 
[V:2] z8 | 
[V:3] B2A2B4 | 
[V:4] G,E,A,4^G,2 | 
[V:1] z4A4- | 
[V:2] e4f4 | 
[V:3] A6d2- | 
[V:4] A,4D,4- | 
[V:1] A8 | 
[V:2] F3GA2F2 | 
[V:3] d4c2d2- | 
[V:4] D,4F,4 | 
[V:1] G4F4 | 
[V:2] G3A_B2A2- | 
[V:3] d2c2d4 | 
[V:4] E,4D,4 | 
[V:1] E2A2G2A2- | 
[V:2] A=Bcde2f2 | 
[V:3] c8- | 
[V:4] A,3B,C2F,2- | 
[V:1] A2GFA2G2 | 
[V:2] F6G2- | 
[V:3] c8- | 
[V:4] F,2E,D,F,2E,2 | 
[V:1] E8- | 
[V:2] G4A4 | 
[V:3] c8- | 
[V:4] C,6A,,2 | 
[V:1] E8 ||  
[V:2] A8 ||  
[V:3] c8 ||  
[V:4] A,,8 ||  
[V:1] [M:3/1]F8G4 | 
[V:2] [M:3/1]d8B4 | 
[V:3] [M:3/1]z12 | 
[V:4] [M:3/1]z12 | 
[V:1] G4A6B2 | 
[V:2] e4c2f4g2 | 
[V:3] z12 | 
[V:4] z12 | 
[V:1] c6A2B3c | 
[V:2] a8g3f | 
[V:3] z12 | 
[V:4] F,8G,4 | 
[V:1] d3cA3Bc3B | 
[V:2] d3ef3ec3d | 
[V:3] z12 | 
[V:4] G,4A,6B,2 | 
[V:1] G4A4B3c | 
[V:2] e6f2g4 | 
[V:3] c8d4 | 
[V:4] C4A,4G,4 | 
[V:1] d2G2c6BA | 
[V:2] G4z4c4 | 
[V:3] d4e6f2 | 
[V:4] _B,4A,8 | 
[V:1] B2G3ABcd2f2- | 
[V:2] d2e3fg3fd2- | 
[V:3] g4e4d4 | 
[V:4] G,8_B,3A, | 
[V:1] f2edc2d4^c2 | 
[V:2] d2a4g2a4 | 
[V:3] f4e8 | 
[V:4] F,3G,A,2_B,2A,4 | 
[V:1] d4A3Bc2d2 | 
[V:2] f4z2f2e2d2 | 
[V:3] d8z4 | 
[V:4] D,8z4 | 
[V:1] A2f2e2d2f3e | 
[V:2] f3ec2d4f2 | 
[V:3] z12 | 
[V:4] z12 | 
[V:1] c2d4c2d2f2 | 
[V:2] e2d2f3efga2- | 
[V:3] z12 | 
[V:4] z12 | 
[V:1] e2d4c2B4 | 
[V:2] a2f2g2a4^g2 | 
[V:3] z12 | 
[V:4] z12 | 
[V:1] A4z4z4 | 
[V:2] a2A2B2d3cf2 | 
[V:3] z12 | 
[V:4] z2F,2E,2D,2F,3E, | 
[V:1] z12 | 
[V:2] edf3ee4d2 | 
[V:3] z12 | 
[V:4] C,2D,4C,2D,2F,2 | 
[V:1] z12 | 
[V:2] c2B3AA4^G2 | 
[V:3] z12 | 
[V:4] E,2D,4C,2B,,4 | 
[V:1] c4A2c3BA2 | 
[V:2] A12 | 
[V:3] c12 | 
[V:4] A,,12 | 
[V:1] G3AB2c4A2 | 
[V:2] c3BG2c2A2c2 | 
[V:3] e4d2e3def | 
[V:4] z2C2B,2A,2C3B, | 
[V:1] B2c3AB2c2A2 | 
[V:2] B2A2d4c3B | 
[V:3] g4f2g4e2 | 
[V:4] G,2A,4G,2A,2C2 | 
[V:1] B2c3AB2c2BA | 
[V:2] G2A2F2G2A3B | 
[V:3] d2f3ee4d2 | 
[V:4] B,2A,4G,2F,4 | 
[V:1] G3FG2A4^G2 | 
[V:2] c2B4A2B4 | 
[V:3] e12- | 
[V:4] E,12 | 
[V:1] A12 |]  
[V:2] A12 |]  
[V:3] e12 |]  
[V:4] A,,12 |]  



